X:SSF 14-21 05
M:2/4
K:G
P:A
B/A/| G>A Bd e/d/e/d/ BA/G/ |1,3 BA AG/A/ BA A :|2,4 BA/G/ ED/E/ GE E :|
P:B
d| e/d/e/d/ Bd e/d/e/d/ BA/G/ |1,3 BA AG/A/ BA A :|2,4 BA/G/ ED/E/ GE E :|

%      SSF 14-21 06 = BFS 14-04 20 The Queen's Delight (in D)

%      SSF 14-21 07 = SSF 14-19b 03 Church Street,
% into SSF 14-21 08 = WFS 13-06 05 Scan Tester's #1

%      SSF 14-21 09 = SSF 14-18 044 Morgan Rattler, into...

